web/workspace/public/assets/icons/white/radio.svg

<svg xmlns="http://www.w3.org/2000/svg" width="30" height="30" viewBox="0 0 30 30"><path d="M11 26a7 7 0 1 0 0-14 7 7 0 0 0 0 14zm0-2c-1.631 0-3.064-.792-3.978-2h7.955c-.913 1.208-2.346 2-3.977 2zm0-10c1.631 0 3.064.792 3.978 2H7.022c.914-1.208 2.347-2 3.978-2zm-4.899 4H15.9a5.062 5.062 0 0 1-.001 2H6.101a4.988 4.988 0 0 1 0-2zM9.147 8l15.484-4.548c.358.337.838.548 1.369.548a2 2 0 0 0 0-4c-.938 0-1.719.647-1.936 1.519L2 8H0v22h30V8H9.147zM28 28H2V10h26v18zm-4-12a2 2 0 1 0-.001-4.001A2 2 0 0 0 24 16zm0 6a2 2 0 1 0-.001-4.001A2 2 0 0 0 24 22z" fill="#fff"/></svg>

<?xml version="1.0" encoding="iso-8859-1"?>
<!-- Generator: Adobe Illustrator 14.0.0, SVG Export Plug-In . SVG Version: 6.00 Build 43363)  -->
<!DOCTYPE svg PUBLIC "-//W3C//DTD SVG 1.1//EN" "http://www.w3.org/Graphics/SVG/1.1/DTD/svg11.dtd">
<svg version="1.1" id="Layer_1" xmlns="http://www.w3.org/2000/svg" xmlns:xlink="http://www.w3.org/1999/xlink" x="0px" y="0px"
	 width="30px" height="30px" viewBox="0 0 30 30" style="enable-background:new 0 0 30 30;" xml:space="preserve">
<path style="fill:#fff" d="M11,26c3.866,0,7-3.134,7-7s-3.134-7-7-7s-7,3.134-7,7S7.134,26,11,26z M11,24c-1.631,0-3.064-0.792-3.978-2h7.955
	C14.064,23.208,12.631,24,11,24z M11,14c1.631,0,3.064,0.792,3.978,2H7.022C7.936,14.792,9.369,14,11,14z M6.101,18h9.799
	C15.965,18.323,16,18.657,16,19s-0.035,0.677-0.101,1H6.101C6.035,19.677,6,19.343,6,19S6.035,18.323,6.101,18z M9.147,8
	l15.484-4.548C24.989,3.789,25.469,4,26,4c1.104,0,2-0.896,2-2s-0.896-2-2-2c-0.938,0-1.719,0.647-1.936,1.519L2,8H0v22h30V8H9.147z
	 M28,28H2V10h26V28z M24,16c1.104,0,2-0.896,2-2s-0.896-2-2-2s-2,0.896-2,2S22.896,16,24,16z M24,22c1.104,0,2-0.896,2-2
	s-0.896-2-2-2s-2,0.896-2,2S22.896,22,24,22z"/>
</svg>
